static/images/mobile/copyright/wikipedia-wordmark-ar.svg

<?xml version="1.0" encoding="UTF-8"?>
<svg width="114px" height="32px" viewBox="0 0 114 32" version="1.1" xmlns="http://www.w3.org/2000/svg" xmlns:xlink="http://www.w3.org/1999/xlink">
    <title>wikipedia-wordmark-ar</title>
    <g id="Page-1" stroke="none" stroke-width="1" fill="none" fill-rule="evenodd">
        <path d="M95.0106143,28.168975 L97.7360804,29.8966713 L95.9725439,31.9999576 L93.247079,30.347377 L95.0106143,28.168975 Z M90.1608909,28.168975 L92.8863558,29.8966713 L91.1228194,31.9999576 L88.3973545,30.347377 L90.1608909,28.168975 Z M66.954234,28.1690173 L69.6796989,29.8967136 L67.9161625,32 L65.1906976,30.3474194 L66.954234,28.1690173 Z M62.1045094,28.1690173 L64.8299744,29.8967136 L63.0664391,32 L60.3409742,30.3474194 L62.1045094,28.1690173 Z M42.7457056,28.1690173 L45.4711705,29.8967136 L43.7076352,32 L40.9821702,30.3474194 L42.7457056,28.1690173 Z M37.8959821,28.1690173 L40.621447,29.8967136 L38.8579107,32 L36.1324458,30.3474194 L37.8959821,28.1690173 Z M14.8497757,28.168975 L17.5752407,29.8966713 L15.8117042,31.9999576 L13.0862393,30.347377 L14.8497757,28.168975 Z M10.0000523,28.168975 L12.7255161,29.8966713 L10.9619809,31.9999576 L8.23651591,30.347377 L10.0000523,28.168975 Z M107.475588,11.84964 C108.009783,11.84964 108.41059,11.9123441 108.677795,12.0374984 C109.359154,12.3630286 109.973722,12.8700686 110.521491,13.5586288 C111.122691,14.272256 111.670447,15.1924384 112.164794,16.3191868 C112.485419,16.9952507 112.752624,17.8966621 112.966398,19.0234105 L113.006483,19.3238739 L113.066667,20.563312 L112.96651,22.0280977 L112.906439,22.5727009 C112.746098,23.5492281 112.412091,24.5820896 111.90442,25.6712854 C111.476885,26.6478127 110.795527,27.6556391 109.860321,28.6947541 C109.379355,29.2956915 108.691311,29.8528123 107.796191,30.3661164 L107.154906,30.6853614 C106.620485,30.8856739 105.972526,30.9858353 105.211008,30.9858353 C104.58307,30.9858353 103.801509,30.8668922 102.866303,30.6290271 C102.371979,30.5414149 101.403372,30.2158846 99.9604729,29.6524999 C99.8936265,29.6274224 99.8268705,29.6024508 99.7600693,29.5773734 L100.200962,28.6196278 L104.008597,28.6007932 L104.168916,28.6007932 C104.315876,28.6007932 104.616471,28.5319097 105.070721,28.3942272 C105.818881,28.143834 106.627169,27.6931284 107.495585,27.0421101 C107.842938,26.7791993 108.424106,26.2158251 109.239079,25.351977 C109.947153,24.5131638 110.494922,23.7557412 110.882371,23.0796773 C111.10949,22.5789014 111.223051,22.1970581 111.223062,21.9341367 C111.223051,21.6837541 111.156215,21.4208432 111.022658,21.1454043 C110.381361,21.5460399 109.379355,21.7400883 108.016626,21.7275707 C107.508932,21.7275707 107.088093,21.7024933 106.754098,21.6524443 C106.05937,21.614881 105.404716,21.3394633 104.790158,20.8261593 C104.669914,20.7385471 104.563039,20.6383749 104.469521,20.5256853 C104.108788,20.1125534 103.854952,19.4928343 103.707992,18.6665388 C103.667907,18.4662368 103.647921,18.2909595 103.647921,18.1407172 L103.607835,17.3707664 C103.634596,16.6070798 103.728069,15.9310265 103.888398,15.342596 C104.008631,14.7667149 104.36268,14.1344782 104.950522,13.4458863 C105.084124,13.2831476 105.217727,13.1454334 105.351329,13.0327438 C105.618523,12.732291 106.01933,12.431817 106.55374,12.1313324 C106.914462,11.9435586 107.221741,11.84964 107.475588,11.84964 Z M52.7858363,25.9718441 L56.0523866,28.1314646 L53.9481674,30.6666749 L50.6615779,28.6760573 L52.7858363,25.9718441 Z M95.19092,10.3661785 C95.538275,10.7793422 95.919033,11.3552446 96.3332096,12.0938855 C96.6939204,12.7574318 96.9811678,13.4835659 97.1949408,14.2722771 C97.4754924,15.2863782 97.6291035,16.2879406 97.6558647,17.2769748 C97.6690759,17.4898154 97.6758509,17.6838638 97.6758509,17.8591306 C97.6758509,18.2973294 97.6357769,18.6854262 97.5556064,19.0234529 C97.4219927,19.5993552 97.1614725,20.08136 96.7740344,20.4694569 C96.3465111,20.88261 95.845502,21.2206366 95.2710239,21.4835368 C94.7098925,21.7339406 94.0018063,21.8591267 93.1467654,21.8591267 L93.1467654,21.8591267 L88.0967524,21.8591267 L88.0967524,18.5539655 L93.2069983,18.5539655 C94.6231649,18.5539761 95.4448109,18.3473996 95.6719385,17.9342465 L95.6719385,17.9342465 L95.7120237,17.7088989 L95.6518394,17.1830773 C95.5716757,16.895142 95.2710736,16.2316063 94.7500353,15.1924701 C94.2022642,14.0907674 93.9016598,13.5148228 93.8482279,13.4647737 L93.8482279,13.4647737 L95.19092,10.3661785 Z M86.2328978,0.957745677 L86.2328978,3.58685353 L74.8701153,8.30045548 L75.3510796,8.69482695 L79.7599195,12.0375407 C80.8287209,12.8388118 81.824049,13.70266 82.7459069,14.6290853 C83.1066188,14.9921682 83.9215858,15.9248789 85.190809,17.4272065 L85.190809,17.4272065 L85.491411,17.7652331 C85.9590015,18.2910654 86.3798459,18.5539761 86.7539429,18.5539655 L86.7539429,18.5539655 L88.0765946,18.5539655 L88.0765946,21.8591373 L24.1484266,21.8591373 C23.6006576,21.8591373 23.099653,21.6775958 22.6454126,21.3145235 C22.3782077,21.1142216 22.1444058,20.7949766 21.9440066,20.3567778 C21.7703223,19.9811986 21.6500846,19.5618025 21.5832834,19.0985687 L21.5832834,19.0985687 L21.5632408,18.7793131 L21.603326,17.8027964 C21.6300443,17.5774488 21.7235648,17.3458372 21.8838878,17.1079615 C21.964047,17.0078105 22.1243677,16.8325437 22.3648531,16.5821399 C22.3648419,16.995293 22.3781998,17.2518868 22.4049271,17.3520906 C22.4583647,17.6650929 22.5251704,17.8654159 22.6053296,17.9530281 C22.7122071,18.0782353 22.8591687,18.2034319 23.0462132,18.3286179 C23.2733317,18.4788391 23.6540941,18.5539761 24.1885039,18.5539655 L24.1885039,18.5539655 L30.5212008,18.5539655 C31.2827155,18.5539761 31.7970804,18.441297 32.0642943,18.2159389 L32.0642943,18.2159389 L32.2446565,17.9342465 L32.3047731,17.5962198 C32.3047607,17.4334812 32.1978798,17.0704089 31.9841306,16.507024 C31.5432347,15.6431864 31.0088305,14.7605566 30.380916,13.8591346 C29.1784951,12.3317719 27.9426861,11.154932 26.6734822,10.3286259 C27.1677999,8.95149482 27.5752828,7.86229905 27.8959332,7.06102798 C28.2165678,7.37403011 28.5438903,7.70580328 28.8779021,8.0563263 C30.4276656,9.74648066 31.6701559,11.4616596 32.6053763,13.201863 C32.8458448,13.6525792 33.086327,14.1784007 33.3268227,14.7793277 L33.3268227,14.7793277 L34.2286313,17.2394116 C34.2553326,17.3646188 34.2954178,17.4960794 34.3488723,17.6337831 C34.5626193,18.2472486 34.7296201,18.5539761 34.8498758,18.5539655 L34.8498758,18.5539655 L43.4671542,18.5539655 L43.4671542,18.0093623 C43.4003417,17.3333196 43.2667461,16.7699455 43.0663514,16.3192291 L41.6434978,13.521108 C41.723657,13.2331727 42.1444968,12.2128286 42.9060296,10.460076 C42.9193876,10.4225128 42.9327455,10.3911925 42.9461149,10.3662209 C43.4270712,10.8920636 43.9815157,11.8873619 44.6094495,13.352137 L44.9501323,14.2723195 C45.1238053,14.8357148 45.3108464,15.5618489 45.511258,16.4507216 L45.7918197,17.8779546 C45.8051665,17.9530811 45.825209,18.0094153 45.8519363,18.0469679 C45.9855275,18.3850051 46.31285,18.5540185 46.8339052,18.5540079 L55.5714235,18.5539655 L55.5714235,18.0093623 C55.504611,17.3333196 55.3710142,16.7699455 55.1706195,16.3192291 L53.7477671,13.521108 C53.8279263,13.2331727 54.248765,12.2128286 55.0102977,10.460076 C55.0236557,10.4225128 55.0370137,10.3911925 55.050383,10.3662209 C55.5313393,10.8920636 56.0857839,11.8873619 56.7137176,13.352137 L57.0544016,14.2723195 C57.2280734,14.8357148 57.4151146,15.5618489 57.6155261,16.4507216 L57.896089,17.8779546 C57.9094358,17.9530811 57.9294783,18.0094153 57.9562056,18.0469679 C58.0897967,18.3850051 58.4171193,18.5540185 58.9381745,18.5540079 L67.6756917,18.5539655 L67.6756917,18.0093623 C67.6088792,17.3333196 67.4752824,16.7699455 67.2748877,16.3192291 L65.8520353,13.521108 C65.9321945,13.2331727 66.3530331,12.2128286 67.114567,10.460076 C67.127925,10.4225128 67.141283,10.3911925 67.154641,10.3662209 C67.6355985,10.8920636 68.190043,11.8873619 68.8179767,13.352137 L69.1586595,14.2723195 C69.3323314,14.8357148 69.5193726,15.5618489 69.7197842,16.4507216 L70.0003471,17.8779546 C70.0136937,17.9530811 70.0337363,18.0094153 70.0604636,18.0469679 C70.1940547,18.3850051 70.5213774,18.5540185 71.0424325,18.5540079 L80.5615341,18.5539761 C81.3631318,18.5539867 81.8040154,18.3348926 81.8841858,17.8967044 L81.8841858,17.8967044 L81.8641432,17.5398962 C81.7706124,17.1142361 81.2362084,16.4632285 80.2609286,15.5868416 C80.2342014,15.5617642 80.2074854,15.5367926 80.1807694,15.5117152 C79.3657946,14.748039 78.343746,13.9467892 77.1146217,13.1079654 L77.1146217,13.1079654 L75.9122109,13.1079654 C75.5381242,12.9452268 75.1707208,12.7449143 74.810001,12.507028 L74.810001,12.507028 L72.665701,10.9295633 C72.6256158,10.7042263 72.5922151,10.5164314 72.5654992,10.3661785 L72.5654992,10.3661785 L72.4652973,9.14552207 L72.5254139,8.22533962 C72.7258154,7.41159334 73.4806612,6.57904428 74.789955,5.72769245 C75.5915583,5.33960621 76.5267664,4.91394616 77.5955803,4.45070174 L77.5955803,4.45070174 L86.2328978,0.957745677 Z M15.0301345,10.3661785 C15.3774907,10.7793422 15.7582543,11.3552446 16.1724253,12.0938855 C16.5331405,12.7574318 16.8203824,13.4835659 17.0341531,14.2722771 C17.3147057,15.2863782 17.4683497,16.2879406 17.4950769,17.2769748 C17.5084575,17.4898154 17.5151196,17.6838638 17.5151196,17.8591306 C17.5151196,18.2973294 17.4750264,18.6854262 17.3948786,19.0234529 C17.2612682,19.5993552 17.0007456,20.08136 16.613311,20.4694569 C16.1857799,20.88261 15.6847751,21.2206366 15.1102982,21.4835368 C14.5491668,21.7339406 13.8410807,21.8591267 12.9860387,21.8591267 L12.9860387,21.8591267 L7.93591268,21.8591267 L7.93591268,18.5539655 L13.0461597,18.5539655 C14.4623252,18.5539761 15.2839724,18.3473996 15.5111022,17.9342465 L15.5111022,17.9342465 L15.5511761,17.7088989 L15.4910595,17.1830773 C15.4108913,16.895142 15.1102881,16.2316063 14.589251,15.1924701 C14.0414798,14.0907674 13.7408744,13.5148228 13.6874424,13.4647737 L13.6874424,13.4647737 L15.0301345,10.3661785 Z M1.8637371,0 C1.91717243,0.112700237 1.97061567,0.225379311 2.0240589,0.338026641 C2.41149807,1.22694169 2.82566112,2.76057912 3.2665503,4.93896009 C3.70742819,7.15493603 3.99467118,8.79499905 4.12827814,9.85913858 C4.43555472,12.2879445 4.61591914,13.7652583 4.66936238,14.2910587 L4.66936238,14.2910587 L5.05013497,17.0891375 C5.06348167,17.1893097 5.0835243,17.2832177 5.11025156,17.3708299 C5.29728594,18.1595729 5.53108795,18.5539338 5.8116576,18.5539232 L5.8116576,18.5539232 L7.89583647,18.5539232 L7.89583647,21.8590923 L7.89583647,21.8590923 L5.4509344,21.8590923 C4.76956195,21.8465668 4.22847659,21.6775535 3.82767942,21.3520444 L3.82767942,21.3520444 L3.72747759,21.2581893 C3.34002939,20.8575749 3.08618701,20.4757209 2.96595046,20.1126487 C2.76554454,19.5492744 2.63194774,19.0297169 2.56514653,18.5539655 C2.37810085,17.2018696 2.21778018,15.7245663 2.08418226,14.1220454 C1.9906583,13.0829409 1.83033649,11.7057888 1.60321799,9.99059926 C1.57649073,9.76526228 1.54309012,9.5399147 1.50301616,9.31454598 L1.50301616,9.31454598 L0.761529393,5.50233431 C0.748148824,5.45225354 0.741484509,5.40844742 0.741486769,5.3708842 C0.634603686,4.88264701 0.38744143,4.28170959 -4.97379915e-14,3.56807192 L-4.97379915e-14,3.56807192 L1.8637371,0 Z M107.535614,14.460072 C106.934392,14.6854407 106.49351,15.0547666 106.212959,15.5680494 C106.186198,15.63069 106.159549,15.6870031 106.132788,15.7370733 C106.012532,16.2128247 105.952427,16.6447488 105.952427,17.0328456 L105.972413,17.5023224 C106.03926,18.1533512 106.279692,18.6040569 106.693869,18.8544395 C106.72063,18.879517 106.75394,18.8982456 106.794025,18.9107314 C107.168094,18.9983437 107.588944,19.0421815 108.056553,19.0421815 C109.005105,19.0421815 109.753276,18.8544078 110.301056,18.4788073 C110.220987,17.9655563 109.940424,17.1580529 109.459469,16.0563184 C108.724655,14.9921682 108.08337,14.460072 107.535614,14.460072 Z" id="wikipedia-wordmark-ar" fill="#000000" fill-rule="nonzero"></path>
    </g>
</svg>

<svg xmlns="http://www.w3.org/2000/svg" width="114" height="32"><path fill="#000" fill-rule="nonzero" d="m95.01 28.169 2.726 1.728L95.973 32l-2.726-1.653 1.764-2.178Zm-4.85 0 2.726 1.728L91.123 32l-2.726-1.653 1.764-2.178Zm-23.206 0 2.726 1.728L67.916 32l-2.725-1.653 1.763-2.178Zm-4.85 0 2.726 1.728L63.066 32l-2.725-1.653 1.764-2.178Zm-19.358 0 2.725 1.728L43.708 32l-2.726-1.653 1.764-2.178Zm-4.85 0 2.725 1.728L38.858 32l-2.726-1.653 1.764-2.178Zm-23.046 0 2.725 1.728L15.812 32l-2.726-1.653 1.764-2.178Zm-4.85 0 2.726 1.728L10.962 32l-2.725-1.653L10 28.17Zm97.476-16.32c.534 0 .935.063 1.202.188.681.326 1.296.833 1.843 1.522.602.713 1.15 1.633 1.644 2.76.32.676.588 1.578.801 2.704l.04.3.06 1.24-.1 1.465-.06.545c-.16.976-.494 2.01-1.002 3.098-.427.977-1.108 1.985-2.044 3.024-.48.6-1.169 1.158-2.064 1.671l-.641.32c-.535.2-1.182.3-1.944.3-.628 0-1.41-.12-2.345-.357-.494-.088-1.463-.413-2.906-.977l-.2-.075.441-.957 3.808-.02h.16c.147 0 .447-.068.902-.206.748-.25 1.556-.7 2.425-1.352.347-.263.928-.826 1.743-1.69.708-.839 1.256-1.596 1.643-2.272.227-.501.341-.883.341-1.146 0-.25-.067-.513-.2-.789-.642.401-1.644.595-3.006.583-.508 0-.929-.026-1.263-.076-.695-.037-1.35-.313-1.964-.826a1.767 1.767 0 0 1-.32-.3c-.361-.413-.615-1.033-.762-1.86-.04-.2-.06-.375-.06-.525l-.04-.77c.027-.764.12-1.44.28-2.028.12-.576.475-1.209 1.063-1.897.133-.163.267-.3.4-.413.268-.3.668-.601 1.203-.902.36-.187.668-.281.922-.281Zm-54.69 14.123 3.266 2.16-2.104 2.535-3.286-1.99 2.124-2.705ZM95.19 10.366c.347.413.728.99 1.142 1.728.36.663.648 1.39.862 2.178.28 1.014.434 2.016.46 3.005.014.213.02.407.02.582 0 .438-.04.826-.12 1.164a2.939 2.939 0 0 1-.781 1.446 5.338 5.338 0 0 1-1.503 1.015c-.561.25-1.27.375-2.124.375h-5.05v-3.305h5.11c1.416 0 2.238-.207 2.465-.62l.04-.225-.06-.526c-.08-.288-.38-.951-.902-1.99-.548-1.102-.848-1.678-.902-1.728l1.343-3.099ZM86.233.958v2.629L74.87 8.3l.481.395 4.409 3.343a27.34 27.34 0 0 1 2.986 2.591c.36.363 1.176 1.296 2.445 2.798l.3.338c.468.526.889.789 1.263.789h1.323v3.305H24.148a2.352 2.352 0 0 1-1.503-.544c-.267-.2-.5-.52-.701-.958a4.52 4.52 0 0 1-.36-1.258l-.02-.32.04-.976c.026-.226.12-.457.28-.695.08-.1.24-.275.48-.526 0 .413.014.67.04.77.054.313.121.513.201.601.107.125.254.25.441.376.227.15.608.225 1.143.225h6.332c.762 0 1.276-.113 1.543-.338l.18-.282.06-.338c0-.163-.106-.526-.32-1.089a22.734 22.734 0 0 0-1.603-2.648c-1.203-1.527-2.438-2.704-3.708-3.53.495-1.378.902-2.467 1.223-3.268.32.313.648.645.982.995 1.55 1.69 2.792 3.406 3.727 5.146.24.45.481.976.722 1.577l.902 2.46c.026.126.066.257.12.395.214.613.38.92.5.92h8.618v-.545c-.067-.676-.2-1.24-.4-1.69l-1.424-2.798c.08-.288.501-1.308 1.263-3.06a.696.696 0 0 1 .04-.095c.481.526 1.036 1.521 1.663 2.986l.341.92c.174.564.36 1.29.561 2.179l.28 1.427a.423.423 0 0 0 .06.169c.135.338.462.507.983.507h8.737v-.545c-.066-.676-.2-1.24-.4-1.69l-1.423-2.798c.08-.288.5-1.308 1.262-3.06a.696.696 0 0 1 .04-.095c.481.526 1.036 1.521 1.664 2.986l.34.92c.174.564.361 1.29.562 2.179l.28 1.427a.423.423 0 0 0 .06.169c.134.338.461.507.982.507h8.738v-.545c-.067-.676-.2-1.24-.401-1.69l-1.423-2.798c.08-.288.501-1.308 1.263-3.06a.698.698 0 0 1 .04-.095c.48.526 1.035 1.521 1.663 2.986l.34.92c.174.564.361 1.29.562 2.179l.28 1.427a.423.423 0 0 0 .06.169c.134.338.461.507.982.507h9.52c.801 0 1.242-.22 1.322-.657l-.02-.357c-.093-.426-.628-1.077-1.603-1.953l-.08-.075c-.815-.764-1.837-1.565-3.066-2.404h-1.203a7.27 7.27 0 0 1-1.102-.601l-2.144-1.577-.1-.564-.1-1.22.06-.92c.2-.814.955-1.647 2.264-2.498a74.573 74.573 0 0 1 2.806-1.277L86.233.958ZM15.03 10.366c.347.413.728.99 1.142 1.728.361.663.648 1.39.862 2.178a12.51 12.51 0 0 1 .461 3.005c.013.213.02.407.02.582 0 .438-.04.826-.12 1.164a2.938 2.938 0 0 1-.782 1.446 5.338 5.338 0 0 1-1.503 1.015c-.56.25-1.269.375-2.124.375h-5.05v-3.305h5.11c1.416 0 2.238-.207 2.465-.62l.04-.225-.06-.526c-.08-.288-.38-.951-.902-1.99-.548-1.102-.848-1.678-.902-1.728l1.343-3.099ZM1.864 0l.16.338c.387.889.802 2.423 1.243 4.601.44 2.216.728 3.856.861 4.92.308 2.429.488 3.906.541 4.432l.381 2.798c.013.1.034.194.06.282.187.789.421 1.183.702 1.183h2.084v3.305H5.45c-.681-.012-1.223-.181-1.623-.507l-.1-.094c-.388-.4-.642-.782-.762-1.145a8.022 8.022 0 0 1-.4-1.559 82.523 82.523 0 0 1-.482-4.432 104.16 104.16 0 0 0-.48-4.131 11.8 11.8 0 0 0-.101-.676L.762 5.502a.518.518 0 0 1-.02-.131C.634 4.883.386 4.28 0 3.568L1.864 0Zm105.672 14.46c-.602.225-1.042.595-1.323 1.108a2.162 2.162 0 0 1-.08.17c-.12.475-.18.907-.18 1.295l.02.47c.066.65.307 1.101.72 1.351.028.026.06.044.101.057.374.087.795.131 1.263.131.948 0 1.696-.188 2.244-.563-.08-.513-.36-1.32-.842-2.423-.734-1.064-1.376-1.596-1.923-1.596Z"/></svg>
